X:1
T:Title
L:1/8
Q:1/4=120
M:4/4
K:Bb
V:1 treble nm="Midi_1"
V:1
 F2 | (Bc)"^Descant to Winchester New (AMNS 27)" d2 e2 (cB) | A2 c2"^Andrew Sims" d2 d2 | %3
w: All|praise, * e- ter- nal *|Son, to thee whose|
 c2 (d=e) (fe) d2 | d2 (cB) A2 f2 | d2 c2 d2 d2 | e2 g2 f2 ^f2 | %7
w: ad- vent * doth * thy|peo- ple * free, whom|with the Fa- ther|we a- dore and|
 g2 e2 d2"^Set to harmony by Noel Rawsthorne,\n10 January 2016" g2 | g2 (fe) d2 |] %9
w: Ho- ly Ghost for|e- ver * more.|

